X:1
T:Highland Skip [1], The
T:Highland Skip [1], The
T:Daniel Dow
C:Daniel Dow
L:1/8
M:4/4
K:F
V:1 treble 
V:1
 f | cFcA cFcA | cFcA c3 d | cFcA cFAc | fdcA G3 :| d | (cA)(fA) (aA)(fA) | cAfA c2 d | %8
 (cA)(fA) (aA)(fd) | cFcA G3 d | (cA)(fA) (aA)(fA) | cAfA c3 d | (cA)(fA) (gA)(ag) | fdcA G2 G || %14

